X:8
T:Bell Schottische, The
C:Taz Tarry 16 June 2019
N:Named after the Bell Inn, Adderbury
M:4/4
L:1/8
Q:1/4=120
K:D
d>cd>B A2d2| e>dc>B A2 F2 |D>EF>G A>Bc>d| B>AG>B A4|
d>ef>d B>cd>B| G>AB>G F2 E2 |D>EF>G A>Bc>d|e2 c2 d4||
F2 (3FFF F2 F2|B>AG>F G2 E2|D>EF>G A>Bc>d| B>AG>B A4|
(3FFF F2 (3FFF F2|B>AG>F G2 E2|D>EF>G A>Bc>d|e2 c2 d4||

